<?xml version="1.0" encoding="UTF-8"?>
<map version="1.5" tiledversion="1.7.2" orientation="orthogonal" renderorder="right-down" width="40" height="30" tilewidth="32" tileheight="32" infinite="0" nextlayerid="4" nextobjectid="13">
 <tileset firstgid="1" name="city_tiles" tilewidth="32" tileheight="32" tilecount="16" columns="4">
  <image source="city_tiles.png" width="128" height="128"/>
  <tile id="0">
   <properties>
    <property name="type" value="grass"/>
   </properties>
  </tile>
  <tile id="1">
   <properties>
    <property name="type" value="road_h"/>
   </properties>
  </tile>
  <tile id="2">
   <properties>
    <property name="type" value="road_v"/>
   </properties>
  </tile>
  <tile id="3">
   <properties>
    <property name="type" value="road_intersection"/>
   </properties>
  </tile>
  <tile id="4">
   <properties>
    <property name="type" value="building_residential"/>
   </properties>
  </tile>
  <tile id="5">
   <properties>
    <property name="type" value="building_commercial"/>
   </properties>
  </tile>
  <tile id="6">
   <properties>
    <property name="type" value="building_industrial"/>
   </properties>
  </tile>
  <tile id="7">
   <properties>
    <property name="type" value="park"/>
   </properties>
  </tile>
 </tileset>
 <layer id="1" name="Ground" width="40" height="30">
  <data encoding="csv">
1,1,1,1,1,1,1,1,1,1,1,1,1,1,1,1,1,1,1,1,1,1,1,1,1,1,1,1,1,1,1,1,1,1,1,1,1,1,1,1,
1,4,4,4,1,1,1,7,7,7,1,1,1,1,1,5,5,5,1,1,1,1,1,4,4,4,1,1,1,1,1,1,1,1,1,6,6,6,1,1,
1,4,4,4,1,1,1,7,7,7,1,1,1,1,1,5,5,5,1,1,1,1,1,4,4,4,1,1,1,1,1,1,1,1,1,6,6,6,1,1,
1,1,1,1,1,1,1,1,1,1,1,1,1,1,1,1,1,1,1,1,1,1,1,1,1,1,1,1,1,1,1,1,1,1,1,1,1,1,1,1,
2,2,2,2,2,2,2,2,2,2,3,2,2,2,2,2,2,2,2,2,2,3,2,2,2,2,2,2,2,2,2,2,3,2,2,2,2,2,2,2,
1,1,1,1,1,1,1,1,1,1,2,1,1,1,1,1,1,1,1,1,1,2,1,1,1,1,1,1,1,1,1,1,2,1,1,1,1,1,1,1,
1,4,4,4,1,1,1,1,1,1,2,1,1,1,7,7,7,7,1,1,1,2,1,1,1,5,5,5,1,1,1,1,2,1,1,1,1,1,1,1,
1,4,4,4,1,1,1,1,1,1,2,1,1,1,7,7,7,7,1,1,1,2,1,1,1,5,5,5,1,1,1,1,2,1,1,1,1,1,1,1,
1,1,1,1,1,1,1,1,1,1,2,1,1,1,1,1,1,1,1,1,1,2,1,1,1,1,1,1,1,1,1,1,2,1,1,1,1,1,1,1,
2,2,2,2,3,2,2,2,2,2,2,2,2,2,2,2,2,2,2,2,2,2,2,2,2,2,2,2,2,2,3,2,2,2,2,2,2,2,2,2,
1,1,1,1,2,1,1,1,1,1,1,1,1,1,1,1,1,1,1,1,1,1,1,1,1,1,1,1,1,1,2,1,1,1,1,1,1,1,1,1,
1,1,1,1,2,1,1,1,1,1,1,1,1,1,1,1,1,1,1,1,1,1,1,1,1,1,1,1,1,1,2,1,1,1,1,1,1,1,1,1,
1,1,1,1,2,1,1,1,5,5,5,1,1,1,1,1,1,1,1,1,1,1,1,1,1,1,1,1,1,1,2,1,1,1,6,6,6,1,1,1,
1,1,1,1,2,1,1,1,5,5,5,1,1,1,4,4,4,1,1,1,1,1,1,1,1,1,1,1,1,1,2,1,1,1,6,6,6,1,1,1,
1,1,1,1,2,1,1,1,1,1,1,1,1,1,4,4,4,1,1,1,1,1,1,1,1,1,1,1,1,1,2,1,1,1,1,1,1,1,1,1,
2,2,2,2,2,2,2,2,2,2,2,2,2,2,2,2,3,2,2,2,2,2,2,2,2,2,2,2,2,2,2,2,2,2,2,2,2,2,2,2,
1,1,1,1,1,1,1,1,1,1,1,1,1,1,1,1,2,1,1,1,1,1,1,1,1,1,1,1,1,1,1,1,1,1,1,1,1,1,1,1,
1,1,7,7,7,1,1,1,1,1,1,1,1,1,1,1,2,1,1,1,5,5,5,1,1,1,1,1,1,1,1,1,1,1,1,1,1,1,1,1,
1,1,7,7,7,1,1,1,1,1,1,1,1,1,1,1,2,1,1,1,5,5,5,1,1,1,1,1,1,1,1,1,1,1,1,1,1,1,1,1,
1,1,1,1,1,1,1,1,1,1,1,1,1,1,1,1,2,1,1,1,1,1,1,1,1,1,1,1,1,1,1,1,1,1,1,1,1,1,1,1,
2,2,2,2,2,2,2,2,3,2,2,2,2,2,2,2,2,2,2,2,2,2,2,2,2,3,2,2,2,2,2,2,2,2,2,2,2,2,2,2,
1,1,1,1,1,1,1,1,2,1,1,1,1,1,1,1,1,1,1,1,1,1,1,1,1,2,1,1,1,1,1,1,1,1,1,1,1,1,1,1,
1,4,4,4,1,1,1,1,2,1,1,1,1,1,1,1,1,1,1,1,1,1,1,1,1,2,1,1,1,1,1,6,6,6,1,1,1,1,1,1,
1,4,4,4,1,1,1,1,2,1,1,1,1,1,1,1,1,1,1,1,1,1,1,1,1,2,1,1,1,1,1,6,6,6,1,1,1,1,1,1,
1,1,1,1,1,1,1,1,2,1,1,1,1,1,1,1,1,1,1,1,1,1,1,1,1,2,1,1,1,1,1,1,1,1,1,1,1,1,1,1,
2,2,2,2,2,2,2,2,2,2,2,2,2,2,3,2,2,2,2,2,2,2,2,2,2,2,2,2,2,2,2,2,2,2,2,2,2,2,2,2,
1,1,1,1,1,1,1,1,1,1,1,1,1,1,2,1,1,1,1,1,1,1,1,1,1,1,1,1,1,1,1,1,1,1,1,1,1,1,1,1,
1,1,1,5,5,5,1,1,1,1,1,1,1,1,2,1,1,1,4,4,4,1,1,1,1,1,1,7,7,7,1,1,1,1,1,1,1,1,1,1,
1,1,1,5,5,5,1,1,1,1,1,1,1,1,2,1,1,1,4,4,4,1,1,1,1,1,1,7,7,7,1,1,1,1,1,1,1,1,1,1,
1,1,1,1,1,1,1,1,1,1,1,1,1,1,1,1,1,1,1,1,1,1,1,1,1,1,1,1,1,1,1,1,1,1,1,1,1,1,1,1
  </data>
 </layer>
 <objectgroup id="2" name="Locations">
  <object id="1" name="阳光小区" x="180" y="480" width="40" height="40">
   <properties>
    <property name="address" value="阳光路123号"/>
    <property name="type" value="residential"/>
   </properties>
  </object>
  <object id="2" name="中心医院" x="380" y="280" width="40" height="40">
   <properties>
    <property name="address" value="健康大道88号"/>
    <property name="type" value="commercial"/>
   </properties>
  </object>
  <object id="3" name="万达广场" x="580" y="530" width="40" height="40">
   <properties>
    <property name="address" value="商业路66号"/>
    <property name="type" value="commercial"/>
   </properties>
  </object>
  <object id="4" name="科技园A区" x="780" y="230" width="40" height="40">
   <properties>
    <property name="address" value="科技路1号"/>
    <property name="type" value="industrial"/>
   </properties>
  </object>
  <object id="5" name="大学城" x="280" y="130" width="40" height="40">
   <properties>
    <property name="address" value="学府路99号"/>
    <property name="type" value="commercial"/>
   </properties>
  </object>
  <object id="6" name="美食街" x="680" y="430" width="40" height="40">
   <properties>
    <property name="address" value="美食路55号"/>
    <property name="type" value="commercial"/>
   </properties>
  </object>
  <object id="7" name="火车站" x="480" y="80" width="40" height="40">
   <properties>
    <property name="address" value="站前路1号"/>
    <property name="type" value="commercial"/>
   </properties>
  </object>
  <object id="8" name="居民区" x="130" y="330" width="40" height="40">
   <properties>
    <property name="address" value="民安街45号"/>
    <property name="type" value="residential"/>
   </properties>
  </object>
  <object id="9" name="物流园" x="880" y="380" width="40" height="40">
   <properties>
    <property name="address" value="物流大道100号"/>
    <property name="type" value="industrial"/>
   </properties>
  </object>
  <object id="10" name="超市总店" x="330" y="430" width="40" height="40">
   <properties>
    <property name="address" value="购物路8号"/>
    <property name="type" value="commercial"/>
   </properties>
  </object>
  <object id="11" name="写字楼" x="630" y="130" width="40" height="40">
   <properties>
    <property name="address" value="办公街20号"/>
    <property name="type" value="commercial"/>
   </properties>
  </object>
  <object id="12" name="公园东门" x="830" y="530" width="40" height="40">
   <properties>
    <property name="address" value="公园路16号"/>
    <property name="type" value="park"/>
   </properties>
  </object>
 </objectgroup>
 <objectgroup id="3" name="Pathfinding">
  <polyline id="13" points="0,144 1280,144"/>
  <polyline id="14" points="0,288 1280,288"/>
  <polyline id="15" points="0,432 1280,432"/>
  <polyline id="16" points="0,576 1280,576"/>
  <polyline id="17" points="320,0 320,720"/>
  <polyline id="18" points="640,0 640,720"/>
  <polyline id="19" points="960,0 960,720"/>
 </objectgroup>
</map>
