<?xml version="1.0" encoding="UTF-8"?>
<map version="1.10" tiledversion="1.10.2" orientation="orthogonal" renderorder="right-down" width="40" height="30" tilewidth="32" tileheight="32" infinite="0" nextlayerid="4" nextobjectid="100">
 <tileset firstgid="1" name="park_tiles" tilewidth="32" tileheight="32" tilecount="16" columns="4">
  <tile id="0" type="grass">
   <properties>
    <property name="name" value="草地"/>
    <property name="color" value="#88cc88"/>
   </properties>
  </tile>
  <tile id="1" type="road">
   <properties>
    <property name="name" value="道路"/>
    <property name="color" value="#888888"/>
   </properties>
  </tile>
  <tile id="2" type="building">
   <properties>
    <property name="name" value="建筑"/>
    <property name="color" value="#ccaa88"/>
   </properties>
  </tile>
  <tile id="3" type="water">
   <properties>
    <property name="name" value="水域"/>
    <property name="color" value="#88aaff"/>
   </properties>
  </tile>
  <tile id="4" type="tree">
   <properties>
    <property name="name" value="树木"/>
    <property name="color" value="#44aa44"/>
   </properties>
  </tile>
  <tile id="5" type="parking">
   <properties>
    <property name="name" value="停车场"/>
    <property name="color" value="#aaaaaa"/>
   </properties>
  </tile>
  <tile id="6" type="sidewalk">
   <properties>
    <property name="name" value="人行道"/>
    <property name="color" value="#cccccc"/>
   </properties>
  </tile>
  <tile id="7" type="flower">
   <properties>
    <property name="name" value="花坛"/>
    <property name="color" value="#ff99cc"/>
   </properties>
  </tile>
 </tileset>
 <layer id="1" name="Ground" width="40" height="30">
  <data encoding="csv">
0,0,0,0,0,0,0,0,0,0,0,0,0,0,0,0,0,0,0,0,0,0,0,0,0,0,0,0,0,0,0,0,0,0,0,0,0,0,0,0,
0,0,0,0,0,0,0,0,0,0,0,0,0,0,0,0,0,0,0,0,0,0,0,0,0,0,0,0,0,0,0,0,0,0,0,0,0,0,0,0,
0,0,0,2,2,2,2,2,2,0,0,0,0,0,1,1,1,1,1,1,1,1,1,1,1,1,0,0,0,0,0,2,2,2,2,2,2,0,0,0,
0,0,0,2,2,2,2,2,2,0,0,0,0,0,1,1,1,1,1,1,1,1,1,1,1,1,0,0,0,0,0,2,2,2,2,2,2,0,0,0,
0,0,0,2,2,2,2,2,2,0,0,0,0,0,1,1,1,1,1,1,1,1,1,1,1,1,0,0,0,0,0,2,2,2,2,2,2,0,0,0,
0,0,0,2,2,2,2,2,2,0,0,0,0,0,1,1,1,1,1,1,1,1,1,1,1,1,0,0,0,0,0,2,2,2,2,2,2,0,0,0,
0,0,0,0,6,6,6,6,0,0,0,0,0,0,1,1,1,1,1,1,1,1,1,1,1,1,0,0,0,0,0,0,6,6,6,6,0,0,0,0,
1,1,1,1,1,1,1,1,1,1,1,1,1,1,1,1,1,1,1,1,1,1,1,1,1,1,1,1,1,1,1,1,1,1,1,1,1,1,1,1,
1,1,1,1,1,1,1,1,1,1,1,1,1,1,1,1,1,1,1,1,1,1,1,1,1,1,1,1,1,1,1,1,1,1,1,1,1,1,1,1,
0,0,0,0,6,6,6,6,0,0,0,4,4,0,1,1,1,1,1,1,1,1,1,1,1,1,0,0,0,0,0,0,6,6,6,6,0,0,0,0,
0,0,0,2,2,2,2,2,2,0,0,4,4,0,1,1,1,1,1,1,1,1,1,1,1,1,0,0,0,0,0,2,2,2,2,2,2,0,0,0,
0,0,0,2,2,2,2,2,2,0,0,0,0,0,1,1,1,1,1,1,1,1,1,1,1,1,0,0,0,0,0,2,2,2,2,2,2,0,0,0,
0,0,0,2,2,2,2,2,2,0,0,7,7,0,1,1,1,1,1,1,1,1,1,1,1,1,0,0,0,0,0,2,2,2,2,2,2,0,0,0,
0,0,0,2,2,2,2,2,2,0,0,7,7,0,1,1,1,1,1,1,1,1,1,1,1,1,0,0,0,0,0,2,2,2,2,2,2,0,0,0,
0,0,0,0,6,6,6,6,0,0,0,0,0,0,1,1,1,1,1,1,1,1,1,1,1,1,0,0,0,0,0,0,6,6,6,6,0,0,0,0,
1,1,1,1,1,1,1,1,1,1,1,1,1,1,1,1,1,1,1,1,1,1,1,1,1,1,1,1,1,1,1,1,1,1,1,1,1,1,1,1,
1,1,1,1,1,1,1,1,1,1,1,1,1,1,1,1,1,1,1,1,1,1,1,1,1,1,1,1,1,1,1,1,1,1,1,1,1,1,1,1,
0,0,0,0,6,6,6,6,0,0,0,0,0,0,1,1,1,1,1,1,1,1,1,1,1,1,0,0,0,0,0,0,6,6,6,6,0,0,0,0,
0,0,0,2,2,2,2,2,2,0,0,4,4,0,1,1,1,1,1,1,1,1,1,1,1,1,0,0,0,0,0,2,2,2,2,2,2,0,0,0,
0,0,0,2,2,2,2,2,2,0,0,4,4,0,1,1,1,1,1,1,1,1,1,1,1,1,0,0,0,0,0,2,2,2,2,2,2,0,0,0,
0,0,0,2,2,2,2,2,2,0,0,0,0,0,1,1,1,1,1,1,1,1,1,1,1,1,0,0,0,0,0,2,2,2,2,2,2,0,0,0,
0,0,0,2,2,2,2,2,2,0,0,7,7,0,1,1,1,1,1,1,1,1,1,1,1,1,0,0,0,0,0,2,2,2,2,2,2,0,0,0,
0,0,0,0,6,6,6,6,0,0,0,7,7,0,1,1,1,1,1,1,1,1,1,1,1,1,0,0,0,0,0,0,6,6,6,6,0,0,0,0,
1,1,1,1,1,1,1,1,1,1,1,1,1,1,1,1,1,1,1,1,1,1,1,1,1,1,1,1,1,1,1,1,1,1,1,1,1,1,1,1,
1,1,1,1,1,1,1,1,1,1,1,1,1,1,1,1,1,1,1,1,1,1,1,1,1,1,1,1,1,1,1,1,1,1,1,1,1,1,1,1,
0,0,0,0,0,0,0,0,0,0,0,0,0,0,0,0,0,0,0,0,0,0,0,0,0,0,0,0,0,0,0,0,0,0,0,0,0,0,0,0,
0,0,0,0,0,4,4,0,0,0,0,0,0,0,0,0,3,3,3,3,3,3,0,0,0,0,0,0,0,0,0,0,4,4,0,0,0,0,0,0,
0,0,0,0,0,4,4,0,0,0,0,0,0,0,0,0,3,3,3,3,3,3,0,0,0,0,0,0,0,0,0,0,4,4,0,0,0,0,0,0,
0,0,0,0,0,0,0,0,0,0,0,0,0,0,0,0,0,0,0,0,0,0,0,0,0,0,0,0,0,0,0,0,0,0,0,0,0,0,0,0,
0,0,0,0,0,0,0,0,0,0,0,0,0,0,0,0,0,0,0,0,0,0,0,0,0,0,0,0,0,0,0,0,0,0,0,0,0,0,0,0
  </data>
 </layer>
 <layer id="2" name="Buildings" width="40" height="30" visible="1" opacity="1" locked="0">
  <data encoding="csv">
0,0,0,0,0,0,0,0,0,0,0,0,0,0,0,0,0,0,0,0,0,0,0,0,0,0,0,0,0,0,0,0,0,0,0,0,0,0,0,0,
0,0,0,0,0,0,0,0,0,0,0,0,0,0,0,0,0,0,0,0,0,0,0,0,0,0,0,0,0,0,0,0,0,0,0,0,0,0,0,0,
0,0,0,0,0,0,0,0,0,0,0,0,0,0,0,0,0,0,0,0,0,0,0,0,0,0,0,0,0,0,0,0,0,0,0,0,0,0,0,0,
0,0,0,0,0,0,0,0,0,0,0,0,0,0,0,0,0,0,0,0,0,0,0,0,0,0,0,0,0,0,0,0,0,0,0,0,0,0,0,0,
0,0,0,0,0,0,0,0,0,0,0,0,0,0,0,0,0,0,0,0,0,0,0,0,0,0,0,0,0,0,0,0,0,0,0,0,0,0,0,0,
0,0,0,0,0,0,0,0,0,0,0,0,0,0,0,0,0,0,0,0,0,0,0,0,0,0,0,0,0,0,0,0,0,0,0,0,0,0,0,0,
0,0,0,0,0,0,0,0,0,0,0,0,0,0,0,0,0,0,0,0,0,0,0,0,0,0,0,0,0,0,0,0,0,0,0,0,0,0,0,0,
0,0,0,0,0,0,0,0,0,0,0,0,0,0,0,0,0,0,0,0,0,0,0,0,0,0,0,0,0,0,0,0,0,0,0,0,0,0,0,0,
0,0,0,0,0,0,0,0,0,0,0,0,0,0,0,0,0,0,0,0,0,0,0,0,0,0,0,0,0,0,0,0,0,0,0,0,0,0,0,0,
0,0,0,0,0,0,0,0,0,0,0,0,0,0,0,0,0,0,0,0,0,0,0,0,0,0,0,0,0,0,0,0,0,0,0,0,0,0,0,0,
0,0,0,0,0,0,0,0,0,0,0,0,0,0,0,0,0,0,0,0,0,0,0,0,0,0,0,0,0,0,0,0,0,0,0,0,0,0,0,0,
0,0,0,0,0,0,0,0,0,0,0,0,0,0,0,0,0,0,0,0,0,0,0,0,0,0,0,0,0,0,0,0,0,0,0,0,0,0,0,0,
0,0,0,0,0,0,0,0,0,0,0,0,0,0,0,0,0,0,0,0,0,0,0,0,0,0,0,0,0,0,0,0,0,0,0,0,0,0,0,0,
0,0,0,0,0,0,0,0,0,0,0,0,0,0,0,0,0,0,0,0,0,0,0,0,0,0,0,0,0,0,0,0,0,0,0,0,0,0,0,0,
0,0,0,0,0,0,0,0,0,0,0,0,0,0,0,0,0,0,0,0,0,0,0,0,0,0,0,0,0,0,0,0,0,0,0,0,0,0,0,0,
0,0,0,0,0,0,0,0,0,0,0,0,0,0,0,0,0,0,0,0,0,0,0,0,0,0,0,0,0,0,0,0,0,0,0,0,0,0,0,0,
0,0,0,0,0,0,0,0,0,0,0,0,0,0,0,0,0,0,0,0,0,0,0,0,0,0,0,0,0,0,0,0,0,0,0,0,0,0,0,0,
0,0,0,0,0,0,0,0,0,0,0,0,0,0,0,0,0,0,0,0,0,0,0,0,0,0,0,0,0,0,0,0,0,0,0,0,0,0,0,0,
0,0,0,0,0,0,0,0,0,0,0,0,0,0,0,0,0,0,0,0,0,0,0,0,0,0,0,0,0,0,0,0,0,0,0,0,0,0,0,0,
0,0,0,0,0,0,0,0,0,0,0,0,0,0,0,0,0,0,0,0,0,0,0,0,0,0,0,0,0,0,0,0,0,0,0,0,0,0,0,0,
0,0,0,0,0,0,0,0,0,0,0,0,0,0,0,0,0,0,0,0,0,0,0,0,0,0,0,0,0,0,0,0,0,0,0,0,0,0,0,0,
0,0,0,0,0,0,0,0,0,0,0,0,0,0,0,0,0,0,0,0,0,0,0,0,0,0,0,0,0,0,0,0,0,0,0,0,0,0,0,0,
0,0,0,0,0,0,0,0,0,0,0,0,0,0,0,0,0,0,0,0,0,0,0,0,0,0,0,0,0,0,0,0,0,0,0,0,0,0,0,0,
0,0,0,0,0,0,0,0,0,0,0,0,0,0,0,0,0,0,0,0,0,0,0,0,0,0,0,0,0,0,0,0,0,0,0,0,0,0,0,0,
0,0,0,0,0,0,0,0,0,0,0,0,0,0,0,0,0,0,0,0,0,0,0,0,0,0,0,0,0,0,0,0,0,0,0,0,0,0,0,0,
0,0,0,0,0,0,0,0,0,0,0,0,0,0,0,0,0,0,0,0,0,0,0,0,0,0,0,0,0,0,0,0,0,0,0,0,0,0,0,0,
0,0,0,0,0,0,0,0,0,0,0,0,0,0,0,0,0,0,0,0,0,0,0,0,0,0,0,0,0,0,0,0,0,0,0,0,0,0,0,0,
0,0,0,0,0,0,0,0,0,0,0,0,0,0,0,0,0,0,0,0,0,0,0,0,0,0,0,0,0,0,0,0,0,0,0,0,0,0,0,0,
0,0,0,0,0,0,0,0,0,0,0,0,0,0,0,0,0,0,0,0,0,0,0,0,0,0,0,0,0,0,0,0,0,0,0,0,0,0,0,0,
0,0,0,0,0,0,0,0,0,0,0,0,0,0,0,0,0,0,0,0,0,0,0,0,0,0,0,0,0,0,0,0,0,0,0,0,0,0,0,0
  </data>
 </layer>
 <objectgroup id="3" name="Markers">
  <object id="1" name="Building_A1" type="building" x="96" y="96" width="128" height="128">
   <properties>
    <property name="buildingId" value="A1"/>
    <property name="buildingName" value="1号住宅楼"/>
    <property name="floors" value="18"/>
    <property name="units" value="72"/>
   </properties>
  </object>
  <object id="2" name="Building_A2" type="building" x="1024" y="96" width="128" height="128">
   <properties>
    <property name="buildingId" value="A2"/>
    <property name="buildingName" value="2号住宅楼"/>
    <property name="floors" value="24"/>
    <property name="units" value="96"/>
   </properties>
  </object>
  <object id="3" name="Building_B1" type="building" x="96" y="352" width="128" height="128">
   <properties>
    <property name="buildingId" value="B1"/>
    <property name="buildingName" value="3号住宅楼"/>
    <property name="floors" value="18"/>
    <property name="units" value="72"/>
   </properties>
  </object>
  <object id="4" name="Building_B2" type="building" x="1024" y="352" width="128" height="128">
   <properties>
    <property name="buildingId" value="B2"/>
    <property name="buildingName" value="4号住宅楼"/>
    <property name="floors" value="24"/>
    <property name="units" value="96"/>
   </properties>
  </object>
  <object id="5" name="Building_C1" type="building" x="96" y="608" width="128" height="128">
   <properties>
    <property name="buildingId" value="C1"/>
    <property name="buildingName" value="5号住宅楼"/>
    <property name="floors" value="12"/>
    <property name="units" value="48"/>
   </properties>
  </object>
  <object id="6" name="Building_C2" type="building" x="1024" y="608" width="128" height="128">
   <properties>
    <property name="buildingId" value="C2"/>
    <property name="buildingName" value="6号住宅楼"/>
    <property name="floors" value="12"/>
    <property name="units" value="48"/>
   </properties>
  </object>
  <object id="7" name="Commercial" type="building" x="480" y="832" width="192" height="96">
   <properties>
    <property name="buildingId" value="COMM1"/>
    <property name="buildingName" value="商业中心"/>
    <property name="floors" value="3"/>
   </properties>
  </object>
  <object id="8" name="Garden" type="area" x="480" y="96" width="256" height="160">
   <properties>
    <property name="areaId" value="G1"/>
    <property name="areaName" value="中心花园"/>
   </properties>
  </object>
  <object id="9" name="Parking" type="area" x="480" y="352" width="256" height="128">
   <properties>
    <property name="areaId" value="P1"/>
    <property name="areaName" value="地下停车场入口"/>
   </properties>
  </object>
  <object id="10" name="Clubhouse" type="building" x="480" y="576" width="192" height="96">
   <properties>
    <property name="buildingId" value="CLUB"/>
    <property name="buildingName" value="物业服务中心"/>
    <property name="floors" value="2"/>
   </properties>
  </object>
 </objectgroup>
</map>
