<?xml version="1.0" encoding="UTF-8"?>
<map version="1.10" tiledversion="1.10.2" orientation="orthogonal" renderorder="right-down" width="30" height="20" tilewidth="32" tileheight="32" infinite="0" nextlayerid="3" nextobjectid="50">
 <tileset firstgid="1" name="residential_tiles" tilewidth="32" tileheight="32" tilecount="8" columns="4">
  <tile id="0" type="grass"><properties><property name="color" value="#88cc88"/></properties></tile>
  <tile id="1" type="road"><properties><property name="color" value="#888888"/></properties></tile>
  <tile id="2" type="building"><properties><property name="color" value="#ccaa88"/></properties></tile>
  <tile id="3" type="sidewalk"><properties><property name="color" value="#cccccc"/></properties></tile>
  <tile id="4" type="tree"><properties><property name="color" value="#44aa44"/></properties></tile>
  <tile id="5" type="flower"><properties><property name="color" value="#ff99cc"/></properties></tile>
  <tile id="6" type="parking"><properties><property name="color" value="#aaaaaa"/></properties></tile>
  <tile id="7" type="playground"><properties><property name="color" value="#ffcc66"/></properties></tile>
 </tileset>
 <layer id="1" name="Ground" width="30" height="20">
  <data encoding="csv">
0,0,0,0,0,0,0,0,0,0,0,0,0,0,0,0,0,0,0,0,0,0,0,0,0,0,0,0,0,0,
0,0,2,2,2,2,2,0,0,0,0,0,0,1,1,1,1,1,0,0,0,0,0,0,2,2,2,2,2,0,
0,0,2,2,2,2,2,0,0,0,0,0,0,1,1,1,1,1,0,0,0,0,0,0,2,2,2,2,2,0,
0,0,2,2,2,2,2,0,0,0,0,0,0,1,1,1,1,1,0,0,0,0,0,0,2,2,2,2,2,0,
0,0,0,3,3,3,0,0,0,4,4,0,0,1,1,1,1,1,0,0,0,4,0,0,0,3,3,3,0,0,
1,1,1,1,1,1,1,1,1,1,1,1,1,1,1,1,1,1,1,1,1,1,1,1,1,1,1,1,1,1,
1,1,1,1,1,1,1,1,1,1,1,1,1,1,1,1,1,1,1,1,1,1,1,1,1,1,1,1,1,1,
0,0,0,3,3,3,0,0,0,5,5,0,0,1,1,1,1,1,0,0,0,5,0,0,0,3,3,3,0,0,
0,0,2,2,2,2,2,0,0,5,5,0,0,1,1,1,1,1,0,0,0,0,0,0,2,2,2,2,2,0,
0,0,2,2,2,2,2,0,0,0,0,0,0,1,1,1,1,1,0,0,0,0,0,0,2,2,2,2,2,0,
0,0,2,2,2,2,2,0,0,7,7,0,0,1,1,1,1,1,0,0,7,7,0,0,2,2,2,2,2,0,
0,0,0,3,3,3,0,0,0,7,7,0,0,1,1,1,1,1,0,0,7,7,0,0,0,3,3,3,0,0,
1,1,1,1,1,1,1,1,1,1,1,1,1,1,1,1,1,1,1,1,1,1,1,1,1,1,1,1,1,1,
1,1,1,1,1,1,1,1,1,1,1,1,1,1,1,1,1,1,1,1,1,1,1,1,1,1,1,1,1,1,
0,0,0,3,3,3,0,0,0,0,0,0,0,6,6,6,6,6,0,0,0,0,0,0,0,3,3,3,0,0,
0,0,2,2,2,2,2,0,0,0,0,0,0,6,6,6,6,6,0,0,0,0,0,0,2,2,2,2,2,0,
0,0,2,2,2,2,2,0,0,4,4,0,0,6,6,6,6,6,0,0,4,4,0,0,2,2,2,2,2,0,
0,0,2,2,2,2,2,0,0,4,4,0,0,6,6,6,6,6,0,0,4,4,0,0,2,2,2,2,2,0,
0,0,0,0,0,0,0,0,0,0,0,0,0,0,0,0,0,0,0,0,0,0,0,0,0,0,0,0,0,0,
0,0,0,0,0,0,0,0,0,0,0,0,0,0,0,0,0,0,0,0,0,0,0,0,0,0,0,0,0,0
  </data>
 </layer>
 <objectgroup id="2" name="Buildings">
  <object id="1" name="Residential_A" type="building" x="64" y="32" width="160" height="96">
   <properties>
    <property name="buildingId" value="RA1"/>
    <property name="buildingName" value="A座"/>
   </properties>
  </object>
  <object id="2" name="Residential_B" type="building" x="800" y="32" width="160" height="96">
   <properties>
    <property name="buildingId" value="RB1"/>
    <property name="buildingName" value="B座"/>
   </properties>
  </object>
  <object id="3" name="Residential_C" type="building" x="64" y="256" width="160" height="96">
   <properties>
    <property name="buildingId" value="RC1"/>
    <property name="buildingName" value="C座"/>
   </properties>
  </object>
  <object id="4" name="Residential_D" type="building" x="800" y="256" width="160" height="96">
   <properties>
    <property name="buildingId" value="RD1"/>
    <property name="buildingName" value="D座"/>
   </properties>
  </object>
  <object id="5" name="Playground" type="area" x="320" y="320" width="128" height="64">
   <properties><property name="areaName" value="儿童游乐区"/></properties>
  </object>
  <object id="6" name="Garden" type="area" x="320" y="96" width="96" height="64">
   <properties><property name="areaName" value="中心花园"/></properties>
  </object>
 </objectgroup>
</map>
