<?xml version="1.0" encoding="UTF-8"?>
<map version="1.5" tiledversion="1.8.4" orientation="orthogonal" renderorder="right-down" width="24" height="16" tilewidth="32" tileheight="32" infinite="0" nextlayerid="3" nextobjectid="9">
 <tileset firstgid="1" name="tiles" tilewidth="32" tileheight="32" tilecount="4" columns="2">
  <grid orientation="orthogonal" width="1" height="1"/>
  <tile id="0"><properties><property name="type" value="floor"/></properties></tile>
  <tile id="1"><properties><property name="type" value="wall"/></properties></tile>
  <tile id="2"><properties><property name="type" value="door"/></properties></tile>
  <tile id="3"><properties><property name="type" value="bed"/></properties></tile>
  <image source="tileset.png" width="96" height="64"/>
</tileset>
 <layer id="1" name="Floor" width="24" height="16">
  <data encoding="csv">
1,1,1,1,1,1,1,1,1,1,1,1,1,1,1,1,1,1,1,1,1,1,1,1,
1,0,0,0,0,0,0,0,0,0,0,0,0,0,0,0,0,0,0,0,0,0,0,1,
1,0,0,3,3,3,0,0,0,0,0,0,0,0,0,0,0,0,3,3,3,0,0,1,
1,0,0,3,3,3,0,0,0,0,0,0,0,0,0,0,0,0,3,3,3,0,0,1,
1,0,0,0,0,0,0,0,0,0,0,0,0,0,0,0,0,0,0,0,0,0,0,1,
1,0,0,0,0,0,0,0,0,0,0,0,0,0,0,0,0,0,0,0,0,0,0,1,
1,0,0,0,0,0,0,0,0,0,0,0,0,0,0,0,0,0,0,0,0,0,0,1,
1,0,0,0,0,0,0,0,0,0,0,0,0,0,0,0,0,0,0,0,0,0,0,1,
1,0,0,0,0,0,0,0,0,0,0,0,0,0,0,0,0,0,0,0,0,0,0,1,
1,0,0,0,0,0,0,0,0,0,0,0,0,0,0,0,0,0,0,0,0,0,0,1,
1,0,0,0,0,0,0,0,0,0,0,0,0,0,0,0,0,0,0,0,0,0,0,1,
1,0,0,0,0,0,0,0,0,0,0,0,0,0,0,0,0,0,0,0,0,0,0,1,
1,0,0,0,0,0,0,0,0,0,0,0,0,0,0,0,0,0,0,0,0,0,0,1,
1,0,0,0,0,0,0,0,0,0,0,0,0,0,0,0,0,0,0,0,0,0,0,1,
1,0,0,0,2,2,0,0,0,0,0,0,0,0,0,0,0,0,0,0,0,0,0,1,
1,1,1,1,1,1,1,1,1,1,1,1,1,1,1,1,1,1,1,1,1,1,1,1
</data>
 </layer>
 <objectgroup id="2" name="InteractiveObjects">
  <object id="1" name="OBJ_BED_A" type="interactive" x="64" y="64" width="96" height="64">
   <properties>
    <property name="triggerTaskIds" value="TASK_014,TASK_015"/>
   </properties>
  </object>
  <object id="2" name="OBJ_BED_B" type="interactive" x="576" y="64" width="96" height="64">
   <properties>
    <property name="triggerTaskIds" value="TASK_016,TASK_017"/>
   </properties>
  </object>
  <object id="3" name="OBJ_ELDER_PATIENT_A" type="npc" x="96" y="160" width="32" height="48">
   <properties>
    <property name="npcId" value="NPC_ELDER_A"/>
    <property name="triggerTaskIds" value="TASK_014,TASK_015"/>
   </properties>
  </object>
  <object id="4" name="OBJ_ELDER_PATIENT_B" type="npc" x="608" y="160" width="32" height="48">
   <properties>
    <property name="npcId" value="NPC_ELDER_B"/>
    <property name="triggerTaskIds" value="TASK_016,TASK_017"/>
   </properties>
  </object>
  <object id="5" name="OBJ_NURSE_STATION" type="interactive" x="352" y="320" width="96" height="48">
   <properties>
    <property name="triggerTaskIds" value="TASK_018"/>
   </properties>
  </object>
  <object id="6" name="OBJ_NURSE" type="npc" x="384" y="288" width="32" height="48">
   <properties>
    <property name="npcId" value="NPC_NURSE"/>
    <property name="triggerTaskIds" value="TASK_018"/>
   </properties>
  </object>
  <object id="7" name="OBJ_BACK_THERAPY" type="door" x="128" y="448" width="64" height="32">
   <properties>
    <property name="targetScene" value="therapy_room"/>
   </properties>
  </object>
 </objectgroup>
</map>
