<?xml version="1.0" encoding="UTF-8"?>
<map version="1.9" tiledversion="1.9.2" orientation="orthogonal" renderorder="right-down" width="20" height="12" tilewidth="64" tileheight="64" infinite="0" nextlayerid="4" nextobjectid="1">
 <tileset firstgid="1" name="inn_tiles" tilewidth="64" tileheight="64" tilecount="16" columns="4">
  <image source="inn_tiles.png" width="256" height="256"/>
  <tile id="0">
   <properties>
    <property name="type" value="floor"/>
   </properties>
  </tile>
  <tile id="1">
   <properties>
    <property name="type" value="wall"/>
   </properties>
  </tile>
  <tile id="2">
   <properties>
    <property name="type" value="reception"/>
   </properties>
  </tile>
  <tile id="3">
   <properties>
    <property name="type" value="room_door"/>
   </properties>
  </tile>
  <tile id="4">
   <properties>
    <property name="type" value="hallway"/>
   </properties>
  </tile>
  <tile id="5">
   <properties>
    <property name="type" value="stairs"/>
   </properties>
  </tile>
  <tile id="6">
   <properties>
    <property name="type" value="cleaning_cart"/>
   </properties>
  </tile>
  <tile id="7">
   <properties>
    <property name="type" value="elevator"/>
   </properties>
  </tile>
  <tile id="8">
   <properties>
    <property name="type" value="lobby"/>
   </properties>
  </tile>
  <tile id="9">
   <properties>
    <property name="type" value="storage"/>
   </properties>
  </tile>
  <tile id="10">
   <properties>
    <property name="type" value="vacant"/>
   </properties>
  </tile>
  <tile id="11">
   <properties>
    <property name="type" value="occupied"/>
   </properties>
  </tile>
  <tile id="12">
   <properties>
    <property name="type" value="cleaning"/>
   </properties>
  </tile>
  <tile id="13">
   <properties>
    <property name="type" value="maintenance"/>
   </properties>
  </tile>
  <tile id="14">
   <properties>
    <property name="type" value="conflict"/>
   </properties>
  </tile>
  <tile id="15">
   <properties>
    <property name="type" value="highlight"/>
   </properties>
  </tile>
 </tileset>
 <layer id="1" name="ground" width="20" height="12">
  <data encoding="csv">
    0,0,0,0,0,0,0,0,0,0,0,0,0,0,0,0,0,0,0,0,
    0,1,1,1,1,1,1,1,1,1,1,1,1,1,1,1,1,1,1,0,
    0,1,8,8,8,8,4,1,1,4,1,1,4,1,1,4,1,1,1,0,
    0,1,8,2,8,8,4,1,1,4,1,1,4,1,1,4,1,1,1,0,
    0,1,8,8,8,8,4,1,1,4,1,1,4,1,1,4,1,1,1,0,
    0,1,4,4,4,4,4,4,4,4,4,4,4,4,4,4,4,4,4,0,
    0,1,3,1,3,1,3,1,3,1,3,1,3,1,3,1,3,1,5,0,
    0,1,0,1,0,1,0,1,0,1,0,1,0,1,0,1,0,1,7,0,
    0,1,0,1,0,1,0,1,0,1,0,1,0,1,0,1,0,1,1,0,
    0,1,0,1,0,1,0,1,0,1,0,1,0,1,0,1,0,1,9,0,
    0,1,1,1,1,1,1,1,1,1,1,1,1,1,1,1,1,1,1,0,
    0,0,0,0,0,0,0,0,0,0,0,0,0,0,0,0,0,0,0,0
  </data>
 </layer>
 <layer id="2" name="rooms" width="20" height="12">
  <data encoding="csv">
    0,0,0,0,0,0,0,0,0,0,0,0,0,0,0,0,0,0,0,0,
    0,0,0,0,0,0,0,0,0,0,0,0,0,0,0,0,0,0,0,0,
    0,0,0,0,0,0,0,0,0,0,0,0,0,0,0,0,0,0,0,0,
    0,0,0,0,0,0,0,0,0,0,0,0,0,0,0,0,0,0,0,0,
    0,0,0,0,0,0,0,0,0,0,0,0,0,0,0,0,0,0,0,0,
    0,0,0,0,0,0,0,0,0,0,0,0,0,0,0,0,0,0,0,0,
    0,0,10,0,10,0,10,0,10,0,10,0,10,0,10,0,10,0,0,0,
    0,0,10,0,10,0,10,0,10,0,10,0,10,0,10,0,10,0,0,0,
    0,0,10,0,10,0,10,0,10,0,10,0,10,0,10,0,10,0,0,0,
    0,0,10,0,10,0,10,0,10,0,10,0,10,0,10,0,10,0,0,0,
    0,0,0,0,0,0,0,0,0,0,0,0,0,0,0,0,0,0,0,0,
    0,0,0,0,0,0,0,0,0,0,0,0,0,0,0,0,0,0,0,0
  </data>
 </layer>
 <objectgroup id="3" name="interactables">
  <object id="1" name="reception_desk" x="256" y="192" width="128" height="64">
   <properties>
    <property name="interact" value="open_order_panel"/>
   </properties>
  </object>
 </objectgroup>
</map>
