<?xml version="1.0" encoding="UTF-8"?>
<map version="1.5" tiledversion="1.8.4" orientation="orthogonal" renderorder="right-down" width="24" height="16" tilewidth="32" tileheight="32" infinite="0" nextlayerid="3" nextobjectid="7">
 <tileset firstgid="1" name="placeholder_tiles" tilewidth="32" tileheight="32" tilecount="4" columns="2">
  <grid orientation="orthogonal" width="1" height="1"/>
  <tile id="0">
   <properties>
    <property name="type" value="floor"/>
   </properties>
  </tile>
  <tile id="1">
   <properties>
    <property name="type" value="wall"/>
   </properties>
  </tile>
  <tile id="2">
   <properties>
    <property name="type" value="door"/>
   </properties>
  </tile>
  <tile id="3">
   <properties>
    <property name="type" value="desk"/>
   </properties>
  </tile>
 </tileset>
 <layer id="1" name="Floor" width="24" height="16">
  <data encoding="csv">
1,1,1,1,1,1,1,1,1,1,1,1,1,1,1,1,1,1,1,1,1,1,1,1,
1,0,0,0,0,0,0,0,0,0,0,0,0,0,0,0,0,0,0,0,0,0,0,1,
1,0,0,0,0,0,0,0,0,0,0,0,0,0,0,0,0,0,0,0,0,0,0,1,
1,0,0,0,3,3,3,0,0,0,0,0,0,0,0,0,0,0,0,0,0,0,0,1,
1,0,0,0,3,3,3,0,0,0,0,0,0,0,0,0,0,0,0,0,0,0,0,1,
1,0,0,0,0,0,0,0,0,0,0,0,0,0,0,0,0,0,0,0,0,0,0,1,
1,0,0,0,0,0,0,0,0,0,0,0,0,0,0,0,0,0,0,0,0,0,0,1,
1,0,0,0,0,0,0,0,0,0,0,0,0,0,0,0,0,0,0,0,0,0,0,1,
1,0,0,0,0,0,0,0,0,0,0,0,0,0,0,0,0,0,0,0,0,0,0,1,
1,0,0,0,0,0,0,0,0,0,0,0,0,0,0,0,0,0,0,0,0,0,0,1,
1,0,0,0,0,0,0,0,0,0,0,0,0,0,0,0,0,0,0,0,0,0,0,1,
1,0,0,0,0,0,0,0,0,0,0,0,0,0,0,0,0,0,0,0,0,0,0,1,
1,0,0,0,0,0,0,0,0,0,0,0,0,0,0,0,0,0,0,0,0,0,0,1,
1,0,0,0,0,0,0,0,0,0,0,0,0,0,0,0,0,0,0,0,0,0,0,1,
1,0,0,0,0,0,0,0,0,0,0,2,2,0,0,0,0,0,0,0,0,0,0,1,
1,1,1,1,1,1,1,1,1,1,1,1,1,1,1,1,1,1,1,1,1,1,1,1
</data>
 </layer>
 <objectgroup id="2" name="InteractiveObjects">
  <object id="1" name="OBJ_RECEPTION_DESK" type="interactive" x="96" y="96" width="96" height="64">
   <properties>
    <property name="triggerTaskIds" value="TASK_001"/>
   </properties>
  </object>
  <object id="2" name="OBJ_PATIENT_WAITING" type="npc" x="480" y="320" width="32" height="48">
   <properties>
    <property name="npcId" value="NPC_PATIENT_001"/>
    <property name="triggerTaskIds" value="TASK_002"/>
   </properties>
  </object>
  <object id="3" name="OBJ_WAITTING_CHAIR" type="interactive" x="384" y="352" width="96" height="32">
   <properties>
    <property name="triggerTaskIds" value=""/>
   </properties>
  </object>
  <object id="4" name="OBJ_EXIT_DOOR" type="door" x="352" y="448" width="64" height="32">
   <properties>
    <property name="targetScene" value="evaluation_room"/>
    <property name="triggerTaskIds" value="TASK_003"/>
   </properties>
  </object>
 </objectgroup>
</map>
